packages/sources/icons/src/vitamix/calendar-check-fill.svg

<svg width="16" height="16" viewBox="0 0 16 16" xmlns="http://www.w3.org/2000/svg"><path fill-rule="evenodd" clip-rule="evenodd" d="M6.00016 1.33337V2.66671H10.0002V1.33337H11.3335V2.66671H14.0002C14.3684 2.66671 14.6668 2.96518 14.6668 3.33337V14C14.6668 14.3682 14.3684 14.6667 14.0002 14.6667H2.00016C1.63197 14.6667 1.3335 14.3682 1.3335 14V3.33337C1.3335 2.96518 1.63197 2.66671 2.00016 2.66671H4.66683V1.33337H6.00016ZM13.3337 6H2.66699V13.3333H13.3337V6ZM10.0245 7.42438L10.0242 7.42404H10.0249L10.0245 7.42438ZM10.0245 7.42438L7.66754 9.78138L6.25354 8.36671L5.30954 9.30938L7.66687 11.6667L10.9669 8.36671L10.0245 7.42438Z"/></svg>

<svg width="16" height="16" xmlns="http://www.w3.org/2000/svg"><path fill-rule="evenodd" clip-rule="evenodd" d="M6 1.333v1.334h4V1.333h1.333v1.334H14c.368 0 .667.298.667.666V14a.667.667 0 0 1-.667.667H2A.667.667 0 0 1 1.333 14V3.333c0-.368.299-.666.667-.666h2.667V1.333H6ZM13.333 6H2.667v7.333h10.666V6Zm-3.309 1.424Zm0 0L7.667 9.781 6.253 8.367l-.944.942 2.358 2.358 3.3-3.3-.943-.943Z"/></svg>
